X: 305820
M: 6/8
L: 1/8
K: G
(3(d/e/f/) |\
g2(3(d/e/f/) g2(3(d/e/f/) | g3 z.b.a | .g.f.e .d.c.B | d^c=c A2 (3(e/f/g/) |\
a2(3(e/f/g/) a3(3(e/f/g/) | a3 z.b.a | gfe def | g3 z2 H|]
ddd |\
e2d ddd | ^c2d ddd | .g.f.e .d.c.B | d2c ccc |\
d2c ccc | B2c ccc | fed cBA | B3 "^D.C."z2 |]


